icons/base-model.svg

<svg xmlns="http://www.w3.org/2000/svg" width="512" height="512" fill="none"><path fill="#000" fill-rule="evenodd" d="M148 85c-34.793 0-63 28.206-63 63v216c0 34.794 28.207 63 63 63h217c34.793 0 63-28.206 63-63V148c0-34.794-28.207-63-63-63H148Zm1 50c-7.73 0-14 6.268-14 14v214c0 7.732 6.27 14 14 14h215c7.73 0 14-6.268 14-14V149c0-7.732-6.27-14-14-14H149Z" clip-rule="evenodd"/><path fill="#000" d="M197.5 512c-14.083 0-25.5-11.417-25.5-25.5v-74c0-14.083 11.417-25.5 25.5-25.5s25.5 11.417 25.5 25.5v74c0 14.083-11.417 25.5-25.5 25.5ZM0 197.5C0 183.417 11.417 172 25.5 172h74c14.083 0 25.5 11.417 25.5 25.5S113.583 223 99.5 223h-74C11.417 223 0 211.583 0 197.5ZM314.5 0C328.583 0 340 11.417 340 25.5v74c0 14.083-11.417 25.5-25.5 25.5S289 113.583 289 99.5v-74C289 11.417 300.417 0 314.5 0ZM512 314.5c0 14.083-11.417 25.5-25.5 25.5h-74c-14.083 0-25.5-11.417-25.5-25.5s11.417-25.5 25.5-25.5h74c14.083 0 25.5 11.417 25.5 25.5ZM314.5 490c-14.083 0-25.5-11.417-25.5-25.5v-52c0-14.083 11.417-25.5 25.5-25.5s25.5 11.417 25.5 25.5v52c0 14.083-11.417 25.5-25.5 25.5ZM22 314.5c0-14.083 11.417-25.5 25.5-25.5h52c14.083 0 25.5 11.417 25.5 25.5S113.583 340 99.5 340h-52C33.417 340 22 328.583 22 314.5ZM197.5 22c14.083 0 25.5 11.417 25.5 25.5v52c0 14.083-11.417 25.5-25.5 25.5S172 113.583 172 99.5v-52c0-14.083 11.417-25.5 25.5-25.5ZM490 197.5c0 14.083-11.417 25.5-25.5 25.5h-52c-14.083 0-25.5-11.417-25.5-25.5s11.417-25.5 25.5-25.5h52c14.083 0 25.5 11.417 25.5 25.5Z"/></svg>

<svg width="512" height="512" viewBox="0 0 512 512" fill="none" xmlns="http://www.w3.org/2000/svg">
<path fill-rule="evenodd" clip-rule="evenodd" d="M148 85C113.207 85 85 113.206 85 148V364C85 398.794 113.207 427 148 427H365C399.793 427 428 398.794 428 364V148C428 113.206 399.793 85 365 85H148ZM149 135C141.27 135 135 141.268 135 149V363C135 370.732 141.27 377 149 377H364C371.73 377 378 370.732 378 363V149C378 141.268 371.73 135 364 135H149Z" fill="black"/>
<path d="M197.5 512C183.417 512 172 500.583 172 486.5L172 412.5C172 398.417 183.417 387 197.5 387C211.583 387 223 398.417 223 412.5L223 486.5C223 500.583 211.583 512 197.5 512Z" fill="black"/>
<path d="M0 197.5C0 183.417 11.4167 172 25.5 172L99.5 172C113.583 172 125 183.417 125 197.5C125 211.583 113.583 223 99.5 223H25.5C11.4167 223 0 211.583 0 197.5Z" fill="black"/>
<path d="M314.5 0C328.583 -1.8468e-06 340 11.4167 340 25.5L340 99.5C340 113.583 328.583 125 314.5 125C300.417 125 289 113.583 289 99.5L289 25.5C289 11.4167 300.417 1.8468e-06 314.5 0Z" fill="black"/>
<path d="M512 314.5C512 328.583 500.583 340 486.5 340L412.5 340C398.417 340 387 328.583 387 314.5C387 300.417 398.417 289 412.5 289L486.5 289C500.583 289 512 300.417 512 314.5Z" fill="black"/>
<path d="M314.5 490C300.417 490 289 478.583 289 464.5L289 412.5C289 398.417 300.417 387 314.5 387C328.583 387 340 398.417 340 412.5L340 464.5C340 478.583 328.583 490 314.5 490Z" fill="black"/>
<path d="M22 314.5C22 300.417 33.4167 289 47.5 289L99.5 289C113.583 289 125 300.417 125 314.5C125 328.583 113.583 340 99.5 340H47.5C33.4167 340 22 328.583 22 314.5Z" fill="black"/>
<path d="M197.5 22C211.583 22 223 33.4167 223 47.5L223 99.5C223 113.583 211.583 125 197.5 125C183.417 125 172 113.583 172 99.5L172 47.5C172 33.4167 183.417 22 197.5 22Z" fill="black"/>
<path d="M490 197.5C490 211.583 478.583 223 464.5 223L412.5 223C398.417 223 387 211.583 387 197.5C387 183.417 398.417 172 412.5 172L464.5 172C478.583 172 490 183.417 490 197.5Z" fill="black"/>
</svg>
